X: 1
T: Reel B\'eloeil
O: Trad Qu\'ebec
R: reel
Z: 2008 John Chambers <jc:trillian.mit.edu>
M: C|
L: 1/8
K: D
FE \
| "D"D3D DFEG | FDDE F2DF | AdcB "A7"AGFE | "D"DFAd "A7"BGEC |
| "D"D3D DFEG | FDDE F2DF | AdcB "A7"AGFE | "D"DdAF     D2 :|
|: AG \
| "D"FAdA FAdA | "Em"GBdB GBdB | "A7"Acec Acec | "D"dfed "A7"cBAG |
| "D"FAdA FAdA | "Em"GBdB GBdB | "A7"Acec Acec |    dfed  "D"d2 :|
